src/lib/packages/icons/src/assets/line/arrows-repeat.svg

<svg width="24" height="24" viewBox="0 0 24 24" fill="none" xmlns="http://www.w3.org/2000/svg">
<path d="M21.75 12V15C21.75 17.068 20.067 18.75 18 18.75H4.81104L6.53101 20.47C6.82401 20.763 6.82401 21.238 6.53101 21.531C6.38501 21.677 6.19298 21.751 6.00098 21.751C5.80898 21.751 5.61695 21.678 5.47095 21.531L2.47095 18.531C2.40195 18.462 2.34708 18.3791 2.30908 18.2871C2.23308 18.1041 2.23308 17.8971 2.30908 17.7141C2.34708 17.6221 2.40195 17.539 2.47095 17.47L5.47095 14.47C5.76395 14.177 6.23898 14.177 6.53198 14.47C6.82498 14.763 6.82498 15.238 6.53198 15.531L4.81201 17.251H18C19.24 17.251 20.25 16.242 20.25 15.001V12.001C20.25 11.587 20.586 11.251 21 11.251C21.414 11.251 21.75 11.586 21.75 12ZM3 12.75C3.414 12.75 3.75 12.414 3.75 12V9.00002C3.75 7.75902 4.76 6.75002 6 6.75002H19.189L17.469 8.46999C17.176 8.76299 17.176 9.23803 17.469 9.53103C17.615 9.67703 17.807 9.751 17.999 9.751C18.191 9.751 18.3831 9.67803 18.5291 9.53103L21.5291 6.53103C21.5981 6.46203 21.6529 6.37913 21.6909 6.28713C21.7669 6.10413 21.7669 5.89713 21.6909 5.71413C21.6529 5.62213 21.5981 5.53899 21.5291 5.46999L18.5291 2.46999C18.2361 2.17699 17.761 2.17699 17.468 2.46999C17.175 2.76299 17.175 3.23803 17.468 3.53103L19.188 5.251H6C3.933 5.251 2.25 6.933 2.25 9.001V12.001C2.25 12.414 2.586 12.75 3 12.75Z" fill="currentColor"/>
</svg>

<svg xmlns="http://www.w3.org/2000/svg" width="24" height="24" fill="none"><path fill="currentColor" d="M21.75 12v3A3.755 3.755 0 0 1 18 18.75H4.811l1.72 1.72a.75.75 0 0 1-1.06 1.061l-3-3a.748.748 0 0 1-.162-.817.749.749 0 0 1 .162-.244l3-3a.75.75 0 0 1 1.061 1.061l-1.72 1.72H18c1.24 0 2.25-1.009 2.25-2.25v-3a.75.75 0 0 1 1.5-.001ZM3 12.75a.75.75 0 0 0 .75-.75V9c0-1.241 1.01-2.25 2.25-2.25h13.189l-1.72 1.72a.75.75 0 0 0 1.06 1.061l3-3a.748.748 0 0 0 .162-.817.749.749 0 0 0-.162-.244l-3-3a.75.75 0 0 0-1.061 1.061l1.72 1.72H6a3.755 3.755 0 0 0-3.75 3.75v3a.75.75 0 0 0 .75.749Z"/></svg>
